src/images/community/learn.svg

<svg width="30" height="30" viewBox="0 0 30 30" fill="none" xmlns="http://www.w3.org/2000/svg">
<path d="M2.5 7.5C2.5 7.5 4.375 5 8.75 5C13.125 5 15 7.5 15 7.5V25C15 25 13.125 23.75 8.75 23.75C4.375 23.75 2.5 25 2.5 25V7.5Z" stroke="black" stroke-width="2.5" stroke-linecap="round" stroke-linejoin="round"/>
<path d="M15 7.5C15 7.5 16.875 5 21.25 5C25.625 5 27.5 7.5 27.5 7.5V25C27.5 25 25.625 23.75 21.25 23.75C16.875 23.75 15 25 15 25V7.5Z" stroke="black" stroke-width="2.5" stroke-linecap="round" stroke-linejoin="round"/>
</svg>

<svg fill="none" height="30" viewBox="0 0 30 30" width="30" xmlns="http://www.w3.org/2000/svg"><g stroke="#000" stroke-linecap="round" stroke-linejoin="round" stroke-width="2.5"><path d="m2.5 7.5s1.875-2.5 6.25-2.5 6.25 2.5 6.25 2.5v17.5s-1.875-1.25-6.25-1.25-6.25 1.25-6.25 1.25z"/><path d="m15 7.5s1.875-2.5 6.25-2.5 6.25 2.5 6.25 2.5v17.5s-1.875-1.25-6.25-1.25-6.25 1.25-6.25 1.25z"/></g></svg>
